X:465
T:Highland Laddie #1 
C:Joe Buchanan's Scottish Tome - Page 024.2
I:024 2
R:Polka
Z:Carl Allison
L:1/8
M:2/4
K:D
A | (B>c) fa|g/f/e/d/ d2|(fe) e(d/2e/2)|(fe) e(f/B/)|
(B>c) fa|g/f/e/d/ f(e/f/)|(dB) B(A/2B/2)|dB 
f/g/|a(g/f/) g(f/e/) | f/e/d/e/ f2 | (f2e2) e(d/e/) | (f2e2) e(f/g/) |
a(g/f/) g(f/e/) | f/e/d/e/ f/a/e/f/ | (dB) B(A/B/) | dB B :|

